symbols/web/wysiwyg/materialsymbolssharp/wysiwyg_wght300_48px.svg

<svg xmlns="http://www.w3.org/2000/svg" height="48" width="48"><path d="M7 41V7h34v34Zm2.25-2.25h29.5v-25.5H9.25ZM14 23.15v-2.3h19.65v2.3Zm0 8v-2.3h11.65v2.3Z"/></svg>

<svg xmlns="http://www.w3.org/2000/svg" height="48" width="48"><path d="M7 41V7H41V41ZM9.25 38.75H38.75V13.25H9.25ZM14 23.15V20.85H33.65V23.15ZM14 31.15V28.85H25.65V31.15Z"/></svg>
